Sweet-Rainbow/icons/distributor-logo-kali-linux.svg

<?xml version="1.0" encoding="UTF-8" standalone="no"?>
<!-- Generator: Gravit.io -->

<svg
   xmlns:dc="http://purl.org/dc/elements/1.1/"
   xmlns:cc="http://creativecommons.org/ns#"
   xmlns:rdf="http://www.w3.org/1999/02/22-rdf-syntax-ns#"
   xmlns:svg="http://www.w3.org/2000/svg"
   xmlns="http://www.w3.org/2000/svg"
   xmlns:sodipodi="http://sodipodi.sourceforge.net/DTD/sodipodi-0.dtd"
   xmlns:inkscape="http://www.inkscape.org/namespaces/inkscape"
   style="isolation:isolate"
   viewBox="0 0 36 36"
   width="48"
   height="48"
   version="1.1"
   id="svg9"
   sodipodi:docname="distributor-logo-kali-linux.svg"
   inkscape:version="0.92.4 (5da689c313, 2019-01-14)">
  <metadata
     id="metadata15">
    <rdf:RDF>
      <cc:Work
         rdf:about="">
        <dc:format>image/svg+xml</dc:format>
        <dc:type
           rdf:resource="http://purl.org/dc/dcmitype/StillImage" />
        <dc:title></dc:title>
      </cc:Work>
    </rdf:RDF>
  </metadata>
  <defs
     id="defs13" />
  <sodipodi:namedview
     pagecolor="#ffffff"
     bordercolor="#666666"
     borderopacity="1"
     objecttolerance="10"
     gridtolerance="10"
     guidetolerance="10"
     inkscape:pageopacity="0"
     inkscape:pageshadow="2"
     inkscape:window-width="640"
     inkscape:window-height="480"
     id="namedview11"
     showgrid="false"
     inkscape:zoom="29.365243"
     inkscape:cx="25.325443"
     inkscape:cy="32"
     inkscape:current-layer="svg9"
     units="px" />
  <linearGradient
     id="_lgradient_28"
     x1="0"
     y1="0.5"
     x2="1"
     y2="0.5"
     gradientTransform="matrix(43.93,0,0,43,2,2.5)"
     gradientUnits="userSpaceOnUse">
    <stop
       offset="0%"
       stop-opacity="1"
       style="stop-color:rgb(88,0,226)"
       id="stop2" />
    <stop
       offset="100%"
       stop-opacity="1"
       style="stop-color:rgb(255,0,230)"
       id="stop4" />
  </linearGradient>
  <g
     id="g826"
     transform="matrix(0.81948555,0,0,0.81948555,-1.6389712,-1.6676532)">
    <path
       id="path7"
       d="m 42.489,23.362 c 0.007,0.213 0.011,0.425 0.011,0.638 0,1.21 -0.12,2.41 -0.12,2.41 -0.127,0.651 0.431,1.31 1.245,1.47 v 0 c 0.814,0.16 1.596,-0.328 1.745,-1.09 0,0 0.13,-1.39 0.13,-2.79 C 45.5,18.3 43.23,12.83 39.2,8.8 35.17,4.77 29.7,2.5 24,2.5 c -2.47,0 -4.92,0.42 -4.92,0.42 -1.286,0.458 -2.104,1.464 -1.825,2.245 v 0 0 c 0.279,0.781 1.401,1.092 2.505,0.695 0,0 2.11,-0.36 4.24,-0.36 4.9,0 9.61,1.95 13.08,5.42 3.288,3.288 5.211,7.689 5.407,12.31 -0.813,-0.217 -1.596,-0.54 -2.132,-1.209 -0.091,-0.112 0.292,-0.01 0.213,-0.185 -0.055,-0.149 -0.107,-0.236 -0.183,-0.365 -0.319,-0.472 -0.646,-0.941 -0.932,-1.434 -0.333,-0.006 -0.666,-0.01 -0.998,-0.016 -0.418,-0.492 -0.88,-0.941 -1.307,-1.425 0.036,0.266 0.084,0.531 0.084,0.8 -0.285,-0.163 -0.567,-0.334 -0.822,-0.542 -0.278,-0.252 -0.535,-0.527 -0.808,-0.784 0.035,0.195 0.073,0.389 0.105,0.584 -0.562,-0.225 -1.089,-0.564 -1.484,-1.027 -0.006,0.115 -0.011,0.229 -0.016,0.344 -0.351,-0.135 -0.694,-0.286 -1.045,-0.422 -0.883,-0.332 -1.758,-0.714 -2.691,-0.883 -1.028,-0.052 -2.114,0.087 -3.086,-0.332 -0.671,-0.261 -1.22,-0.788 -1.541,-1.43 C 25.258,13.81 25.338,12.51 25.508,11.322 24.761,10.827 23.952,10.434 23.121,10.102 22.733,9.963 22.37,9.76 21.965,9.672 20.502,9.189 19.004,8.817 17.49,8.537 16.832,8.392 16.159,8.324 15.502,8.178 14.873,8.057 14.236,7.992 13.6,7.916 10.578,7.568 7.533,7.436 4.492,7.463 4.077,7.466 3.66,7.458 3.244,7.461 v 0 C 2.828,7.464 2.413,7.479 2,7.531 c 4.577,0.083 9.166,0.458 13.648,1.422 0.866,0.113 1.703,0.371 2.547,0.586 0.409,0.096 0.791,0.278 1.198,0.383 0.678,0.172 1.34,0.399 2.011,0.598 0.411,0.178 0.855,0.259 1.262,0.445 0.609,0.259 1.203,0.549 1.795,0.846 0.076,0.051 0.197,0.076 0.219,0.181 0.153,0.644 0.235,1.304 0.422,1.94 0.351,1.19 0.798,2.362 1.431,3.433 -0.674,0.321 -1.256,0.806 -1.765,1.346 -0.726,0.799 -1.29,1.763 -1.532,2.82 -0.294,1.082 -0.233,2.13 0.022,3.213 0.277,0.969 0.771,1.676 1.443,2.428 1.348,1.535 3.446,2.423 5.49,2.187 2.464,-0.198 5.031,0.198 7.196,1.436 1.136,0.657 2.21,1.465 3.021,2.508 1.103,1.253 1.932,2.825 2.565,4.365 0.092,0.232 0.176,0.47 0.304,0.686 0,-0.289 -0.106,-0.559 -0.203,-0.825 -0.295,-0.786 -0.628,-1.66 -1.045,-2.39 -0.491,-0.877 -1.031,-1.734 -1.711,-2.479 -0.992,-1.195 -2.203,-2.216 -3.588,-2.928 1.056,0.136 2.084,0.443 3.086,0.793 1.073,0.384 2.104,0.892 3.03,1.559 0.914,0.741 1.719,1.627 2.312,2.648 0.308,0.494 0.503,1.147 0.772,1.661 -0.237,-1.191 -0.833,-2.386 -1.58,-3.332 -0.442,-0.574 -1.004,-1.033 -1.555,-1.495 -1.272,-1.003 -2.751,-1.713 -4.281,-2.226 -2.809,-0.922 -5.781,-1.275 -8.729,-1.274 -0.712,0.004 -1.431,-0.089 -2.101,-0.339 -1.548,-0.556 -2.767,-1.723 -3.147,-3.323 -0.49,-1.737 0.054,-3.61 1.332,-4.877 1.038,-1.06 2.551,-1.664 4.037,-1.519 1.536,0.11 2.996,0.647 4.43,1.172 1.173,0.458 2.353,0.911 3.486,1.465 0.03,0.327 0.056,0.662 0.176,0.972 0.161,0.317 0.507,0.469 0.815,0.612 0.585,0.262 1.14,0.496 1.638,0.902 0.369,0.298 0.675,0.661 1.026,0.978 0.117,-0.187 0.136,-0.233 0.169,-0.298 0.019,-0.02 0.006,0.001 0.032,-0.028 0.217,-0.228 0.522,-0.306 0.811,-0.421 z M 38.29,37.99 v 0 c 0.591,0.58 0.443,1.691 -0.329,2.48 C 35.32,43.17 29.78,45.5 24,45.5 18.3,45.5 12.83,43.23 8.8,39.2 4.77,35.17 2.5,29.7 2.5,24 c 0,-1.78 0.22,-3.55 0.22,-3.55 0.237,-0.949 1.082,-1.556 1.885,-1.355 v 0 c 0.803,0.201 1.289,1.033 1.085,1.855 0,0 -0.19,1.52 -0.19,3.05 0,4.9 1.95,9.61 5.42,13.08 3.47,3.47 8.18,5.42 13.08,5.42 4.97,0 9.74,-2.01 11.82,-4.132 0.773,-0.788 1.879,-0.958 2.47,-0.378 z M 24.451,12.223 c -5.543,-0.047 -11.105,0.208 -16.584,1.093 -1.435,0.241 -2.879,0.461 -4.283,0.85 4.694,-0.66 9.423,-1.106 14.164,-1.211 2.309,-0.015 4.623,0.059 6.922,0.289 -0.077,-0.339 -0.156,-0.679 -0.219,-1.021 z m 0.362,1.502 c -3.119,0.293 -6.18,1.034 -9.149,2.017 -2.052,0.704 -4.067,1.527 -6.008,2.498 -0.689,0.347 -1.385,0.682 -2.039,1.094 0.738,-0.316 1.457,-0.675 2.203,-0.971 4.855,-1.996 9.999,-3.395 15.258,-3.664 -0.101,-0.321 -0.196,-0.645 -0.265,-0.974 z m 6.183,1.025 c 0.551,0.248 1.131,0.422 1.678,0.68 1.67,0.73 3.274,1.64 4.685,2.8 0.511,0.424 0.988,0.89 1.401,1.409 0.108,0.118 0.288,0.029 0.428,0.05 C 39.031,19.4 38.744,19.214 38.521,18.98 37.394,17.874 36.1,16.942 34.701,16.211 33.522,15.599 32.29,15.064 30.996,14.75 Z"
       style="fill:url(#_lgradient_28);fill-rule:evenodd"
       inkscape:connector-curvature="0" />
  </g>
</svg>

<?xml version="1.0" encoding="UTF-8" standalone="no"?><!-- Generator: Gravit.io --><svg xmlns="http://www.w3.org/2000/svg" xmlns:xlink="http://www.w3.org/1999/xlink" style="isolation:isolate" viewBox="0 0 48 48" width="48pt" height="48pt"><linearGradient id="_lgradient_28" x1="0" y1="0.5" x2="1" y2="0.5" gradientTransform="matrix(43.93,0,0,43,2,2.5)" gradientUnits="userSpaceOnUse"><stop offset="0%" stop-opacity="1" style="stop-color:rgb(88,0,226)"/><stop offset="100%" stop-opacity="1" style="stop-color:rgb(255,0,230)"/></linearGradient><path d=" M 42.489 23.362 C 42.496 23.575 42.5 23.787 42.5 24 C 42.5 25.21 42.38 26.41 42.38 26.41 C 42.253 27.061 42.811 27.72 43.625 27.88 L 43.625 27.88 C 44.439 28.04 45.221 27.552 45.37 26.79 C 45.37 26.79 45.5 25.4 45.5 24 C 45.5 18.3 43.23 12.83 39.2 8.8 C 35.17 4.77 29.7 2.5 24 2.5 C 21.53 2.5 19.08 2.92 19.08 2.92 C 17.794 3.378 16.976 4.384 17.255 5.165 L 17.255 5.165 L 17.255 5.165 C 17.534 5.946 18.656 6.257 19.76 5.86 C 19.76 5.86 21.87 5.5 24 5.5 C 28.9 5.5 33.61 7.45 37.08 10.92 C 40.368 14.208 42.291 18.609 42.487 23.23 C 41.674 23.013 40.891 22.69 40.355 22.021 C 40.264 21.909 40.647 22.011 40.568 21.836 C 40.513 21.687 40.461 21.6 40.385 21.471 C 40.066 20.999 39.739 20.53 39.453 20.037 C 39.12 20.031 38.787 20.027 38.455 20.021 C 38.037 19.529 37.575 19.08 37.148 18.596 C 37.184 18.862 37.232 19.127 37.232 19.396 C 36.947 19.233 36.665 19.062 36.41 18.854 C 36.132 18.602 35.875 18.327 35.602 18.07 C 35.637 18.265 35.675 18.459 35.707 18.654 C 35.145 18.429 34.618 18.09 34.223 17.627 C 34.217 17.742 34.212 17.856 34.207 17.971 C 33.856 17.836 33.513 17.685 33.162 17.549 C 32.279 17.217 31.404 16.835 30.471 16.666 C 29.443 16.614 28.357 16.753 27.385 16.334 C 26.714 16.073 26.165 15.546 25.844 14.904 C 25.258 13.81 25.338 12.51 25.508 11.322 C 24.761 10.827 23.952 10.434 23.121 10.102 C 22.733 9.963 22.37 9.76 21.965 9.672 C 20.502 9.189 19.004 8.817 17.49 8.537 C 16.832 8.392 16.159 8.324 15.502 8.178 C 14.873 8.057 14.236 7.992 13.6 7.916 C 10.578 7.568 7.533 7.436 4.492 7.463 C 4.077 7.466 3.66 7.458 3.244 7.461 L 3.244 7.461 C 2.828 7.464 2.413 7.479 2 7.531 C 6.577 7.614 11.166 7.989 15.648 8.953 C 16.514 9.066 17.351 9.324 18.195 9.539 C 18.604 9.635 18.986 9.817 19.393 9.922 C 20.071 10.094 20.733 10.321 21.404 10.52 C 21.815 10.698 22.259 10.779 22.666 10.965 C 23.275 11.224 23.869 11.514 24.461 11.811 C 24.537 11.862 24.658 11.887 24.68 11.992 C 24.833 12.636 24.915 13.296 25.102 13.932 C 25.453 15.122 25.9 16.294 26.533 17.365 C 25.859 17.686 25.277 18.171 24.768 18.711 C 24.042 19.51 23.478 20.474 23.236 21.531 C 22.942 22.613 23.003 23.661 23.258 24.744 C 23.535 25.713 24.029 26.42 24.701 27.172 C 26.049 28.707 28.147 29.595 30.191 29.359 C 32.655 29.161 35.222 29.557 37.387 30.795 C 38.523 31.452 39.597 32.26 40.408 33.303 C 41.511 34.556 42.34 36.128 42.973 37.668 C 43.065 37.9 43.149 38.138 43.277 38.354 C 43.277 38.065 43.171 37.795 43.074 37.529 C 42.779 36.743 42.446 35.869 42.029 35.139 C 41.538 34.262 40.998 33.405 40.318 32.66 C 39.326 31.465 38.115 30.444 36.73 29.732 C 37.786 29.868 38.814 30.175 39.816 30.525 C 40.889 30.909 41.92 31.417 42.846 32.084 C 43.76 32.825 44.565 33.711 45.158 34.732 C 45.466 35.226 45.661 35.879 45.93 36.393 C 45.693 35.202 45.097 34.007 44.35 33.061 C 43.908 32.487 43.346 32.028 42.795 31.566 C 41.523 30.563 40.044 29.853 38.514 29.34 C 35.705 28.418 32.733 28.065 29.785 28.066 C 29.073 28.07 28.354 27.977 27.684 27.727 C 26.136 27.171 24.917 26.004 24.537 24.404 C 24.047 22.667 24.591 20.794 25.869 19.527 C 26.907 18.467 28.42 17.863 29.906 18.008 C 31.442 18.118 32.902 18.655 34.336 19.18 C 35.509 19.638 36.689 20.091 37.822 20.645 C 37.852 20.972 37.878 21.307 37.998 21.617 C 38.159 21.934 38.505 22.086 38.813 22.229 C 39.398 22.491 39.953 22.725 40.451 23.131 C 40.82 23.429 41.126 23.792 41.477 24.109 C 41.594 23.922 41.613 23.876 41.646 23.811 C 41.665 23.791 41.652 23.812 41.678 23.783 C 41.895 23.555 42.2 23.477 42.489 23.362 Z  M 38.29 37.99 L 38.29 37.99 C 38.881 38.57 38.733 39.681 37.961 40.47 C 35.32 43.17 29.78 45.5 24 45.5 C 18.3 45.5 12.83 43.23 8.8 39.2 C 4.77 35.17 2.5 29.7 2.5 24 C 2.5 22.22 2.72 20.45 2.72 20.45 C 2.957 19.501 3.802 18.894 4.605 19.095 L 4.605 19.095 C 5.408 19.296 5.894 20.128 5.69 20.95 C 5.69 20.95 5.5 22.47 5.5 24 C 5.5 28.9 7.45 33.61 10.92 37.08 C 14.39 40.55 19.1 42.5 24 42.5 C 28.97 42.5 33.74 40.49 35.82 38.368 C 36.593 37.58 37.699 37.41 38.29 37.99 L 38.29 37.99 Z  M 24.451 12.223 C 18.908 12.176 13.346 12.431 7.867 13.316 C 6.432 13.557 4.988 13.777 3.584 14.166 C 8.278 13.506 13.007 13.06 17.748 12.955 C 20.057 12.94 22.371 13.014 24.67 13.244 C 24.593 12.905 24.514 12.565 24.451 12.223 L 24.451 12.223 Z  M 24.813 13.725 C 21.694 14.018 18.633 14.759 15.664 15.742 C 13.612 16.446 11.597 17.269 9.656 18.24 C 8.967 18.587 8.271 18.922 7.617 19.334 C 8.355 19.018 9.074 18.659 9.82 18.363 C 14.675 16.367 19.819 14.968 25.078 14.699 C 24.977 14.378 24.882 14.054 24.813 13.725 L 24.813 13.725 Z  M 30.996 14.75 C 31.547 14.998 32.127 15.172 32.674 15.43 C 34.344 16.16 35.948 17.07 37.359 18.23 C 37.87 18.654 38.347 19.12 38.76 19.639 C 38.868 19.757 39.048 19.668 39.188 19.689 C 39.031 19.4 38.744 19.214 38.521 18.98 C 37.394 17.874 36.1 16.942 34.701 16.211 C 33.522 15.599 32.29 15.064 30.996 14.75 L 30.996 14.75 Z " fill-rule="evenodd" fill="url(#_lgradient_28)"/></svg>
